!!!OTL: 697. Bas gebirgische Madel.
!!!ARE: Europa, Mitteleuropa, Deutschland, Erzgebirge, Schneeberg
!!!SCT: B0697
!!!TXL: @@SGW
!!!YEM: Copyright 1995, estate of Helmut Schaffrath.
**kern	**text
*ICvox	*
*Ivox	*
*clefG2	*
*M6/8	*
*k[]	*
*C:	*
!LO:TX:a:t=Mäßig.	!
{16g	Bin
16g	ich
=1	=1
(8.g	gleich
16a)	a
8g	ge-
8ee	-bir-
8dd	-gi-
8cc	-ſches
=2	=2
8cc	Madel,
8b	.
8r	.
4r}	.
{8a	bin
=3	=3
[8.g	mun-
16g]	-ter,
8g	ſo
8a	fei
8g	und
8f	ſo
=4	=4
[4.e	gut,
8e]	.
8r}	.
{8c	dreh
=5	=5
[8.a	flei-
16a]	-ßig
8a	mei
8cc	Spinnel,
8b	.
8a	mei
=6	=6
8a	Ra-
8g	-del,
8r	.
4r}	.
{8g	ſo
=7	=7
8.g	arm
16g	ich
8g	bi,
8g	hab'
8a	ich
8b	doch
=8	=8
(4.cc	Muth,
8eeL)	.
8ddJ}	.
{8cc	ſo
=9	=9
8.dd	arm
16ee	ich
8ff	bi,
8g	hab'
8a	ich
8b	doch
=10	=10
[4.c	Muth.
8c]	.
8r}	.
==	==
!!!AGN: Heimat - Lied
!!!GTL: Scherzlieder und Gemischtes
!!!ONB: ESAC (Essen Associative Code) Database: BOEHME
!!!AMT: compound duple
!!!AIN: vox
!!!EED: Helmut Schaffrath
!!!EEV: 1.0
!!Mel. aus Schneeberg, nach Bruno Doſt, Erʒgeb. Berglieder. II. Heft. 1891. S. 19.
!!@@COMMENT:"Text aus M. Dörings "Bergreyheu" II. Heft, Nr. 60. (1839. Andere Lesart von Tert ohne Melodie im Liederhort II. S. 404."
!!@@END:
!!!Text: B. Dost
!!!URL-scan: https://archive.org/details/BoehmeVtLieder1895/page/n547/mode/2up
!!!ENC: Anna Maria Matuszewska
!!!EEV: 2024/17/07
*-	*-
